img/sort-by.svg

<svg fill="none" height="800" viewBox="0 0 24 24" width="800" xmlns="http://www.w3.org/2000/svg">
    <path clip-rule="evenodd"
          d="m3.46447 20.5355c1.46446 1.4645 3.82148 1.4645 8.53553 1.4645 4.714 0 7.0711 0 8.5355-1.4645 1.4645-1.4644 1.4645-3.8215 1.4645-8.5355 0-4.71405 0-7.07107-1.4645-8.53553-1.4644-1.46447-3.8215-1.46447-8.5355-1.46447-4.71405 0-7.07107 0-8.53553 1.46447-1.46447 1.46446-1.46447 3.82148-1.46447 8.53553 0 4.714 0 7.0711 1.46447 8.5355zm11.28553-4.5355c0 .4142-.3358.75-.75.75h-4c-.41421 0-.75-.3358-.75-.75s.33579-.75.75-.75h4c.4142 0 .75.3358.75.75zm1.25-3.25c.4142 0 .75-.3358.75-.75s-.3358-.75-.75-.75h-8c-.41421 0-.75.3358-.75.75s.33579.75.75.75zm2.75-4.75c0 .41421-.3358.75-.75.75h-12c-.41421 0-.75-.33579-.75-.75s.33579-.75.75-.75h12c.4142 0 .75.33579.75.75z"
          fill="#ffffff" fill-rule="evenodd"/>
</svg>

<?xml version="1.0" encoding="utf-8"?><!-- Uploaded to: SVG Repo, www.svgrepo.com, Generator: SVG Repo Mixer Tools -->
<svg width="800px" height="800px" viewBox="0 0 24 24" fill="none" xmlns="http://www.w3.org/2000/svg">
    <path fill-rule="evenodd" clip-rule="evenodd"
          d="M3.46447 20.5355C4.92893 22 7.28595 22 12 22C16.714 22 19.0711 22 20.5355 20.5355C22 19.0711 22 16.714 22 12C22 7.28595 22 4.92893 20.5355 3.46447C19.0711 2 16.714 2 12 2C7.28595 2 4.92893 2 3.46447 3.46447C2 4.92893 2 7.28595 2 12C2 16.714 2 19.0711 3.46447 20.5355ZM14.75 16C14.75 16.4142 14.4142 16.75 14 16.75H10C9.58579 16.75 9.25 16.4142 9.25 16C9.25 15.5858 9.58579 15.25 10 15.25H14C14.4142 15.25 14.75 15.5858 14.75 16ZM16 12.75C16.4142 12.75 16.75 12.4142 16.75 12C16.75 11.5858 16.4142 11.25 16 11.25H8C7.58579 11.25 7.25 11.5858 7.25 12C7.25 12.4142 7.58579 12.75 8 12.75H16ZM18.75 8C18.75 8.41421 18.4142 8.75 18 8.75H6C5.58579 8.75 5.25 8.41421 5.25 8C5.25 7.58579 5.58579 7.25 6 7.25H18C18.4142 7.25 18.75 7.58579 18.75 8Z"
          fill="#FFFFFF"/>
</svg>
